app/javascript/images/wechat.svg

<?xml version="1.0" encoding="iso-8859-1"?>
<!-- Generator: Adobe Illustrator 19.0.0, SVG Export Plug-In . SVG Version: 6.00 Build 0)  -->
<svg version="1.1" id="Capa_1" xmlns="http://www.w3.org/2000/svg" xmlns:xlink="http://www.w3.org/1999/xlink" x="0px" y="0px"
	 viewBox="0 0 512 512" style="enable-background:new 0 0 512 512;" xml:space="preserve">
<g>
	<g>
		<path d="M192,32C85.952,32,0,103.648,0,192c0,50.944,28.736,96.128,73.312,125.376L48,368l68.96-29.536
			c14.784,5.248,30.144,9.568,46.56,11.584c-2.24-9.76-3.52-19.776-3.52-30.048c0-88.224,86.112-160,192-160
			c9.696,0,19.168,0.8,28.512,1.952C363.616,87.968,285.696,32,192,32z M128,152c-13.248,0-24-10.752-24-24s10.752-24,24-24
			s24,10.752,24,24S141.248,152,128,152z M256,152c-13.248,0-24-10.752-24-24s10.752-24,24-24s24,10.752,24,24S269.248,152,256,152z
			"/>
	</g>
</g>
<g>
	<g>
		<path d="M512,320c0-70.688-71.648-128-160-128s-160,57.312-160,128s71.648,128,160,128c14.528,0,28.352-2.048,41.76-4.96L480,480
			l-29.824-59.616C487.552,396.96,512,360.928,512,320z M304,312c-13.248,0-24-10.752-24-24s10.752-24,24-24s24,10.752,24,24
			S317.248,312,304,312z M400,312c-13.248,0-24-10.752-24-24s10.752-24,24-24s24,10.752,24,24S413.248,312,400,312z"/>
	</g>
</g>
<g>
</g>
<g>
</g>
<g>
</g>
<g>
</g>
<g>
</g>
<g>
</g>
<g>
</g>
<g>
</g>
<g>
</g>
<g>
</g>
<g>
</g>
<g>
</g>
<g>
</g>
<g>
</g>
<g>
</g>
</svg>

<?xml version="1.0" encoding="UTF-8" standalone="no"?>
<!DOCTYPE svg PUBLIC "-//W3C//DTD SVG 1.1//EN" "http://www.w3.org/Graphics/SVG/1.1/DTD/svg11.dtd">
<svg width="100%" height="100%" viewBox="0 0 512 448" version="1.1" xmlns="http://www.w3.org/2000/svg" xmlns:xlink="http://www.w3.org/1999/xlink" xml:space="preserve" xmlns:serif="http://www.serif.com/" style="fill-rule:evenodd;clip-rule:evenodd;stroke-linejoin:round;stroke-miterlimit:2;">
    <g transform="matrix(1,0,0,1,0,-32)">
        <g>
            <g>
                <g>
                    <path d="M192,32C85.952,32 0,103.648 0,192C0,242.944 28.736,288.128 73.312,317.376L48,368L116.96,338.464C131.744,343.712 147.104,348.032 163.52,350.048C161.28,340.288 160,330.272 160,320C160,231.776 246.112,160 352,160C361.696,160 371.168,160.8 380.512,161.952C363.616,87.968 285.696,32 192,32ZM128,152C114.752,152 104,141.248 104,128C104,114.752 114.752,104 128,104C141.248,104 152,114.752 152,128C152,141.248 141.248,152 128,152ZM256,152C242.752,152 232,141.248 232,128C232,114.752 242.752,104 256,104C269.248,104 280,114.752 280,128C280,141.248 269.248,152 256,152Z" style="fill:rgb(149,149,149);fill-rule:nonzero;"/>
                </g>
            </g>
            <g>
                <g>
                    <path d="M512,320C512,249.312 440.352,192 352,192C263.648,192 192,249.312 192,320C192,390.688 263.648,448 352,448C366.528,448 380.352,445.952 393.76,443.04L480,480L450.176,420.384C487.552,396.96 512,360.928 512,320ZM304,312C290.752,312 280,301.248 280,288C280,274.752 290.752,264 304,264C317.248,264 328,274.752 328,288C328,301.248 317.248,312 304,312ZM400,312C386.752,312 376,301.248 376,288C376,274.752 386.752,264 400,264C413.248,264 424,274.752 424,288C424,301.248 413.248,312 400,312Z" style="fill:rgb(149,149,149);fill-rule:nonzero;"/>
                </g>
            </g>
        </g>
    </g>
</svg>
